**kern	**text
*clefG2	*
*k[f#c#]	*
*M4/4	*
*MM200	*
=1	=1
8aL	ぼ
8aJ	く
4e	が
8dL	ず
8eJ	ー
8r	.
8d	と
=2	=2
8eL	ま
8dJ	え
4e	か
4f#	ら
4r	.
=3	=3
8dL	お
8dJ	も
4e'	お
8dL	て
8e	る
8e	ー
8dJ	こ
=4	=4
8eL	と
8d	を
8e	は
8eJ	な
8f#L	そ
8f#J	う
4d'	か
=5	=5
8aL	と
8aJ	も
4e	だ
8d	ち
4e	に
8d	も
=6	=6
8eL	ど
8dJ	れ
4e	た
4f#	ら
4r	.
=7	=7
8dL	こ
8d	れ
8e	い
8dJ	じょ
8dL	う
8e	わ
8e	ー
8dJ	も
=8	=8
8eL	う
8d	の
8e	ぞ
8eJ	ま
8f#L	な
8f#J	い
4d'	さ
=9	=9
8aL	き
8aJ	み
4e	が
8dL	そ
8e	れ
8e	ー
8dJ	で
=10	=10
8eL	い
8dJ	い
4e	な
4f#	ら
4r	.
=11	=11
8dL	ぼ
8dJ	く
4e'	だ
8dL	て
8e	そ
8e	ー
8dJ	れ
=12	=12
8eL	で
8d	か
8e	ま
8eJ	わ
8f#L	な
8f#J	い
4d'	さ
=13	=13
8aL	う
8aJ	そ
4g	つ
8d	き
4e	の
8d	ぼ
=14	=14
8eL	く
8d	が
8e	は
8eJ	い
4f#	た
4r	.
=15	=15
8dL	は
8dJ	ん
4e	た
8dL	い
8e	こ
8e	ー
8dJ	と
=16	=16
8eL	ば
8dJ	の
4e	あ
4f#	い
4a	の
=17	=17
4c#	う
[2.d	た
=18	=18
2.d]	.
4r	.
=19	=19
1r	.
=20	=20
1r	.
=21	=21
1r	.
=22	=22
1r	.
=23	=23
1r	.
=24	=24
1r	.
=25	=25
1r	.
=26	=26
1r	.
=27	=27
1r	.
=28	=28
1r	.
=29	=29
1r	.
=30	=30
1r	.
=31	=31
1r	.
=32	=32
1r	.
=33	=33
8aL	きょ
8aJ	う
4e	わ
8dL	こ
8eJ	ー
8r	.
8d	ち
=34	=34
8eL	の
8d	ち
8e	ほ
8eJ	う
4f#	わ
4r	.
=35	=35
8eL	ど
8dJ	しゃ
4e	ぶ
8dL	り
8e	の
8e	ー
[8dJ	せ
=36	=36
8dL]	.
8e	い
8e	て
8eJ	ん
8f#L	で
8f#J	し
4d'	た
=37	=37
8aL	き
8aJ	の
4e	お
8d	も
4.e'	ず
=38	=38
8eL	と
8dJ	ひ
4e	ま
4f#	で
4r	.
=39	=39
8dL	い
8dJ	ち
4e	に
8d	ち
4e	ま
8c#	ん
=40	=40
8eL	き
8d	つ
8e	し
8eJ	て
8f#L	ま
8f#J	し
4d'	た
=41	=41
8aL	べ
8aJ	つ
4e	に
8d	き
4e	み
8d	の
=42	=42
8eL	こ
8d	と
8e	な
8eJ	ん
4f#	て
4r	.
=43	=43
8dL	か
8dJ	ん
4e	が
8d	え
4e	て
[8d	な
=44	=44
8dL]	.
8d	ん
8e	か
8eJ	い
8f#L	な
8f#J	い
4d'	さ
=45	=45
8dL	い
8dJ	や
4e	で
8dL	も
8eJ	ちょ
8r	.
8d	と
=46	=46
8eL	ほ
8d	ん
8e	と
8eJ	う
4f#	わ
4r	.
=47	=47
8dL	か
8dJ	ん
4e	が
8d	え
4e	て
8d	た
=48	=48
8eL	か
8dJ	も
4e	な
8eL	ん
8f#J	て
4d	め
=49	=49
8c#L	り
8dJ	ー
[4e	ご
8eL]	.
8d	ら
8d	ん
8dJ	ど
=50	=50
4d	み
8c#L	た
8c#J	い
4d	に
[4e	ま
=51	=51
8e]	.
4.f#	わ
4d	る
8AL	ぼ
8BJ	く
=52	=52
8c#L	の
8dJ	あ
[4e	た
8eL]	.
8d	ま
8d	ん
8f#J	な
=53	=53
4g	か
4f#	わ
8gL	も
8gJ	う
4a	ぐ
=54	=54
4a#X	る
4an	ぐ
4b	る
4a	さ
=55	=55
4r	.
4a	こ
4cc#	の
4dd	りょ
=56	=56
8dd	う
4.cc#	て
4dd	か
4b	ら
=57	=57
4r	.
4b	こ
4dd	ぼ
[4ee	れ
=58	=58
8eeL]	.
8dd	そ
8dd	う
8eeJ	な
4aa	ほ
4gg	ど
=59	=59
4r	.
8ggL	き
8ff#J	み
8eeL	に
8ddJ	も
4dd'	ら
=60	=60
4a	た
4r	.
4a	あ
4cc#	い
=61	=61
4dd	わ
4r	.
4a	ど
4dd	こ
=62	=62
4ee	に
4dd	す
4ee	て
8ddL	よ
8ddJ	う
=63	=63
4r	.
4a	か
4cc#	ぎ
[4dd	り
=64	=64
8dd]	.
4.b	の
4dd	あ
4a	る
=65	=65
4r	.
8aL	しょ
8aJ	う
8cc#L	も
8cc#J	う
4dd	ひ
=66	=66
8dd	ん
4.cc#	な
8cc#L	ん
8ggJ	て
[4ff#	ぼ
=67	=67
4ff#]	.
2ee	く
[4dd	わ
=68	=68
2.dd]	.
4r	.
=69	=69
4r	.
2a	い
[4dd	ら
=70	=70
8dd]	.
4.ee	な
4dd	い
[4cc#	よ
=71	=71
4cc#]	.
4r	.
8aL	ぼ
8aJ	く
4e	が
=72	=72
4d	ず
8r	.
8d	と
8eL	ま
8dJ	え
4e	か
=73	=73
4f#	ら
4r	.
8dL	お
8dJ	も
4r	.
=74	=74
8d	て
4e	る
8d	こ
8eL	と
8d	を
8e	は
8eJ	な
=75	=75
8f#L	そ
8f#J	う
4d'	か
8aL	す
8aJ	が
4e	た
=76	=76
8d	わ
4e	み
8d	え
8eL	な
8dJ	い
4e	の
=77	=77
4f#	に
4r	.
8dL	こ
8dJ	と
4e	ば
=78	=78
8d	だ
4e	け
8c#	み
8eL	え
8eJ	ちゃ
8r	.
8e	て
=79	=79
8f#L	る
8f#J	ん
4d'	だ
8aL	ぼ
8aJ	く
4e	が
=80	=80
8d	し
4e	ら
8d	な
8eL	い
8dJ	こ
4e	と
=81	=81
4f#	が
4r	.
8dL	あ
8dJ	る
4e	だ
=82	=82
8d	け
4e	で
8d	き
8eL	が
8d	く
8e	る
8eJ	い
=83	=83
8f#L	そ
8f#J	う
4d'	だ
8aL	ぶ
8aJ	ら
4e	さ
=84	=84
8dL	が
8eJ	ー
8r	.
8d	た
8eL	か
8d	ん
8e	じょ
8eJ	う
=85	=85
4f#	が
4r	.
8dL	き
8dJ	れ
4e	い
=86	=86
8d	な
4e	の
8d	か
8eL	き
8d	た
8e	な
8eJ	い
=87	=87
4f#	の
4d	か
4cn	ぼ
[4d	く
=88	=88
8d]	.
4.e	に
2d	わ
=89	=89
4A	ま
4B	だ
4cn	わ
[4d	か
=90	=90
8d]	.
4.a	ら
2d	ず
=91	=91
2r	.
4f#	す
8gL	て
[8f#J	る
=92	=92
8f#]	.
4cc#	あ
8b	て
4a#X	も
4an	ー
=93	=93
4f#	な
4e	い
4c#	ん
[4d	だ
=94	=94
4d]	.
4r	.
2r	.
=95	=95
2r	.
8aL	こ
8aJ	と
4e	ば
=96	=96
8d	の
4e	う
8d	ら
8eL	の
8dJ	う
4e	ら
=97	=97
4f#	が
4r	.
8dL	み
8dJ	え
4e	る
=98	=98
8d	ま
4e	で
8d	ま
8eL	つ
8dJ	か
4a	ら
=99	=99
4d	さ
4r	.
8aL	ま
8aJ	つ
4e	く
=100	=100
8d	ら
4e	い
8d	な
8eL	ら
8dJ	い
4a	い
=101	=101
4a#X	じゃ
4an	な
4b	い
[4a	か
=102	=102
4a]	.
4r	.
4r	.
[4a	す
=103	=103
4a]	.
2cc#	す
[4dd	む
=104	=104
8dd]	.
4.cc#	き
4dd	み
4a	と
=105	=105
4r	.
4a	と
2cc#	ま
=106	=106
8r	.
4cc#	た
8dd	ぼ
4gg	く
4ff#	の
=107	=107
4r	.
8ff#L	ち
8eeJ	ぢ
8ddL	ま
8cc#J	ら
4dd	な
=108	=108
4a	い
4r	.
4a	す
4cc#	き
=109	=109
4dd	を
4r	.
4a	な
4dd	に
=110	=110
4ee	で
4dd	う
4ee	め
8ddL	よ
8ddJ	う
=111	=111
4r	.
4a	ま
4cc#	だ
[4dd	す
=112	=112
8dd]	.
4.cc#	な
4dd	お
4a	に
=113	=113
4r	.
4a	こ
4cc#	と
4dd	ば
=114	=114
8dd	に
4cc#	で
8dd	き
8ggL	な
8ggJ	い
[4ff#	ぼ
=115	=115
4ff#]	.
2ee	く
[4dd	わ
=116	=116
2.dd]	.
4r	.
=117	=117
4r	.
8r	.
8a	て
8aL	ん
8e	せ
8d#X	い
8c#J	の
=118	=118
8r	.
4e	よ
[8f#	わ
8f#]	.
4e	む
8c#	し
=119	=119
4d	さ
4a#X	こ
4dd	の
4dd#X	りょ
=120	=120
8dd#X	う
4.ddn	て
4dd#X	か
4a#X	ら
=121	=121
4r	.
4a#X	こ
4dd	ぼ
[4dd#X	れ
=122	=122
8dd#L]	.
8ddn	そ
8dd	う
8dd#XJ	な
4gg#X	ほ
4ggn	ど
=123	=123
4r	.
8ggL	き
8ffnJ	み
8dd#XL	に
8ddnJ	わ
4dd#X	た
=124	=124
4a#X	す
4r	.
4a#	あ
4dd	い
=125	=125
4dd#X	を
4r	.
4a#X	だ
4dd#	れ
=126	=126
4ffn	に
4dd#X	ゆ
4ff	ず
8dd#L	ろ
8dd#J	う
=127	=127
4r	.
8a#XL	そ
8a#J	ん
8ddL	な
8ddJ	ん
[4dd#X	ど
=128	=128
8dd#]	.
4.ddn	こ
4dd#X	に
4a#X	も
=129	=129
4r	.
4a#X	あ
4dd	て
4dd#X	が
=130	=130
8dd#X	あ
4ddn	る
8dd#X	わ
4gg#X	け
[4ggn	な
=131	=131
8.ggL]	.
16ggJk	い
2ffn	だ
[4dd#X	ろ
=132	=132
2.dd#]	.
4r	.
=133	=133
4r	.
2dd#X	ま
[4a#X	だ
=134	=134
4a#]	.
4r	.
[2ffn	ま
=135	=135
4ff]	.
2dd	つ
[4dd#X	よ
=136	=136
2.dd#]	.
4r	.
=137	=137
1r	.
=138	=138
2r	.
4r	.
[4dd#X	も
=139	=139
4dd#]	.
2ffn	い
[4dd#X	か
=140	=140
2dd#_	.
8dd#L]	.
8dd#XJ	い
4r	.
==	==
*-	*-
